packages/ui-icons/src/Service-logos/24/Apple-music_direct_url.svg

<svg viewBox="0 0 32 32" fill="none" xmlns="http://www.w3.org/2000/svg">
<path d="M16 28C22.6274 28 28 22.6274 28 16C28 9.37258 22.6274 4 16 4C9.37258 4 4 9.37258 4 16C4 22.6274 9.37258 28 16 28Z" fill="url(#paint0_linear_1033_38)"/>
<path fill-rule="evenodd" clip-rule="evenodd" d="M21.39 8L20.75 8.11L13.51 9.52C13.3457 9.54811 13.191 9.61687 13.06 9.72C12.9255 9.83385 12.8396 9.99485 12.82 10.17C12.8112 10.2498 12.8112 10.3302 12.82 10.41V19.15C12.8431 19.3567 12.7858 19.5644 12.66 19.73C12.5223 19.8803 12.3331 19.9731 12.13 19.99L11.66 20.08C11.2061 20.158 10.7582 20.2683 10.32 20.41C10.0249 20.5155 9.75561 20.6825 9.53 20.9C9.33884 21.0888 9.1921 21.3177 9.10043 21.5703C9.00876 21.8228 8.97445 22.0926 9 22.36C9.04581 22.8087 9.26025 23.2233 9.6 23.52C9.84908 23.7422 10.1528 23.894 10.48 23.96C10.913 24.0268 11.355 24.0064 11.78 23.9C12.0774 23.8454 12.3642 23.7441 12.63 23.6C12.8902 23.4493 13.1153 23.2447 13.29 23C13.4623 22.7564 13.5846 22.4811 13.65 22.19C13.7064 21.9069 13.7332 21.6187 13.73 21.33V13.74C13.73 13.33 13.85 13.22 14.19 13.15L20.48 11.92C20.87 11.85 21.05 11.92 21.05 12.35V17.54C21.074 17.7438 21.0244 17.9496 20.91 18.12C20.7681 18.2644 20.5811 18.3562 20.38 18.38L19.91 18.47C19.4536 18.5356 19.0047 18.6461 18.57 18.8C18.2708 18.8969 17.9997 19.0651 17.78 19.29C17.6036 19.4628 17.4652 19.6705 17.3739 19.9C17.2826 20.1294 17.2402 20.3754 17.2497 20.6222C17.2591 20.8689 17.32 21.111 17.4286 21.3328C17.5371 21.5546 17.6909 21.7512 17.88 21.91C18.1237 22.1325 18.4253 22.2816 18.75 22.34C19.1863 22.4068 19.6316 22.3864 20.06 22.28C20.3546 22.2269 20.6384 22.1255 20.9 21.98C21.1627 21.8331 21.3911 21.632 21.57 21.39C21.7392 21.1459 21.8582 20.8705 21.92 20.58C21.9776 20.2972 22.0011 20.0084 21.99 19.72V8.62C22 8.22 21.78 8 21.39 8Z" fill="white"/>
<defs>
<linearGradient id="paint0_linear_1033_38" x1="4" y1="16" x2="28" y2="16" gradientUnits="userSpaceOnUse">
<stop stop-color="#FA233B"/>
<stop offset="1" stop-color="#FB5C74"/>
</linearGradient>
</defs>
</svg>

<svg viewBox="0 0 32 32" fill="none" xmlns="http://www.w3.org/2000/svg"><path d="M16 28c6.627 0 12-5.373 12-12S22.627 4 16 4 4 9.373 4 16s5.373 12 12 12Z" fill="url(#a)"/><path fill-rule="evenodd" clip-rule="evenodd" d="m21.39 8-.64.11-7.24 1.41a1 1 0 0 0-.45.2.69.69 0 0 0-.24.45c-.009.08-.009.16 0 .24v8.74a.81.81 0 0 1-.16.58.81.81 0 0 1-.53.26l-.47.09a9.689 9.689 0 0 0-1.34.33 2.21 2.21 0 0 0-.79.49A1.81 1.81 0 0 0 9 22.36c.046.449.26.863.6 1.16.25.222.553.374.88.44.433.067.875.046 1.3-.06.297-.055.584-.156.85-.3.26-.15.485-.355.66-.6a2.26 2.26 0 0 0 .36-.81c.056-.283.083-.571.08-.86v-7.59c0-.41.12-.52.46-.59l6.29-1.23c.39-.07.57 0 .57.43v5.19a.86.86 0 0 1-.14.58.89.89 0 0 1-.53.26l-.47.09a6.999 6.999 0 0 0-1.34.33c-.3.097-.57.265-.79.49a1.77 1.77 0 0 0 .1 2.62c.244.223.545.372.87.43.436.067.882.046 1.31-.06.295-.053.578-.155.84-.3a2.12 2.12 0 0 0 .67-.59c.17-.244.288-.52.35-.81.058-.283.081-.572.07-.86V8.62c.01-.4-.21-.62-.6-.62Z" fill="#fff"/><defs><linearGradient id="a" x1="4" y1="16" x2="28" y2="16" gradientUnits="userSpaceOnUse"><stop stop-color="#FA233B"/><stop offset="1" stop-color="#FB5C74"/></linearGradient></defs></svg>
